assets/book.svg

<svg width="318" height="262" viewBox="0 0 318 262" fill="none" xmlns="http://www.w3.org/2000/svg">
<g filter="url(#filter0_d_458_50)">
<path fill-rule="evenodd" clip-rule="evenodd" d="M32.25 0.25H144.917V28.4167H32.25V197.417H144.917V28.4167H173.083V197.417H285.75V28.4167H173.083V0.25H285.75H313.917V28.4167V197.417V225.583H285.75H173.083V253.75H144.917V225.583H32.25H4.08333V197.417V28.4167V0.25H32.25ZM257.583 98.8333H201.25V127H257.583V98.8333ZM201.25 56.5833H257.583V84.75H201.25V56.5833ZM229.417 141.083H201.25V169.25H229.417V141.083Z" fill="#775ADA"/>
</g>
<defs>
<filter id="filter0_d_458_50" x="0.0833282" y="0.25" width="317.833" height="261.5" filterUnits="userSpaceOnUse" color-interpolation-filters="sRGB">
<feFlood flood-opacity="0" result="BackgroundImageFix"/>
<feColorMatrix in="SourceAlpha" type="matrix" values="0 0 0 0 0 0 0 0 0 0 0 0 0 0 0 0 0 0 127 0" result="hardAlpha"/>
<feOffset dy="4"/>
<feGaussianBlur stdDeviation="2"/>
<feComposite in2="hardAlpha" operator="out"/>
<feColorMatrix type="matrix" values="0 0 0 0 0 0 0 0 0 0 0 0 0 0 0 0 0 0 0.25 0"/>
<feBlend mode="normal" in2="BackgroundImageFix" result="effect1_dropShadow_458_50"/>
<feBlend mode="normal" in="SourceGraphic" in2="effect1_dropShadow_458_50" result="shape"/>
</filter>
</defs>
</svg>

<svg width="318" height="262" fill="none" xmlns="http://www.w3.org/2000/svg"><g filter="url(#a)"><path fill-rule="evenodd" clip-rule="evenodd" d="M32.25.25h112.667v28.167H32.25v169h112.667v-169h28.166v169H285.75v-169H173.083V.25h140.834v225.333H173.083v28.167h-28.166v-28.167H4.083V.25H32.25Zm225.333 98.583H201.25V127h56.333V98.833Zm-56.333-42.25h56.333V84.75H201.25V56.583Zm28.167 84.5H201.25v28.167h28.167v-28.167Z" fill="#775ADA"/></g><defs><filter id="a" x=".083" y=".25" width="317.833" height="261.5" filterUnits="userSpaceOnUse" color-interpolation-filters="sRGB"><feFlood flood-opacity="0" result="BackgroundImageFix"/><feColorMatrix in="SourceAlpha" values="0 0 0 0 0 0 0 0 0 0 0 0 0 0 0 0 0 0 127 0" result="hardAlpha"/><feOffset dy="4"/><feGaussianBlur stdDeviation="2"/><feComposite in2="hardAlpha" operator="out"/><feColorMatrix values="0 0 0 0 0 0 0 0 0 0 0 0 0 0 0 0 0 0 0.25 0"/><feBlend in2="BackgroundImageFix" result="effect1_dropShadow_458_50"/><feBlend in="SourceGraphic" in2="effect1_dropShadow_458_50" result="shape"/></filter></defs></svg>
